img/i_warning_ce.svg

<svg width="12" height="12" viewBox="0 0 12 12" fill="none" xmlns="http://www.w3.org/2000/svg">
<path d="M5.42602 2.33089L1.7803 8.62943C1.72196 8.73021 1.6912 8.84458 1.6911 8.96103C1.691 9.07748 1.72158 9.1919 1.77975 9.29279C1.83792 9.39367 1.92163 9.47745 2.02246 9.5357C2.1233 9.59395 2.23769 9.62462 2.35414 9.62462H9.64559C9.76204 9.62462 9.87644 9.59395 9.97727 9.5357C10.0781 9.47745 10.1618 9.39367 10.22 9.29279C10.2782 9.19191 10.3087 9.07748 10.3086 8.96103C10.3085 8.84458 10.2778 8.73021 10.2194 8.62943L6.57371 2.33089C6.51547 2.23026 6.43179 2.14672 6.33107 2.08865C6.23035 2.03057 6.11613 2 5.99987 2C5.8836 2 5.76938 2.03057 5.66866 2.08865C5.56795 2.14672 5.48427 2.23026 5.42602 2.33089Z" fill="#F93F32"/>
<path fill-rule="evenodd" clip-rule="evenodd" d="M5.99999 4.5733C6.22662 4.5733 6.41035 4.75703 6.41035 4.98367V6.64126C6.41035 6.8679 6.22662 7.05163 5.99999 7.05163C5.77335 7.05163 5.58962 6.8679 5.58962 6.64126V4.98367C5.58962 4.75703 5.77335 4.5733 5.99999 4.5733Z" fill="#FFE7E0"/>
<path d="M5.99998 8.63039C6.27462 8.63039 6.49726 8.40775 6.49726 8.13311C6.49726 7.85847 6.27462 7.63583 5.99998 7.63583C5.72534 7.63583 5.5027 7.85847 5.5027 8.13311C5.5027 8.40775 5.72534 8.63039 5.99998 8.63039Z" fill="#FFE7E0"/>
<path fill-rule="evenodd" clip-rule="evenodd" d="M5.99998 8.5278C6.21796 8.5278 6.39467 8.35109 6.39467 8.13311C6.39467 7.91513 6.21796 7.73842 5.99998 7.73842C5.782 7.73842 5.60529 7.91513 5.60529 8.13311C5.60529 8.35109 5.782 8.5278 5.99998 8.5278ZM6.49726 8.13311C6.49726 8.40775 6.27462 8.63039 5.99998 8.63039C5.72534 8.63039 5.5027 8.40775 5.5027 8.13311C5.5027 7.85847 5.72534 7.63583 5.99998 7.63583C6.27462 7.63583 6.49726 7.85847 6.49726 8.13311Z" fill="#FFE7E0"/>
</svg>

<svg xmlns="http://www.w3.org/2000/svg" width="12" height="12" fill="none" xmlns:v="https://vecta.io/nano"><path d="M5.426 2.331L1.78 8.629c-.058.101-.089.215-.089.332s.03.231.089.332.142.185.243.243.215.089.332.089h7.291c.116 0 .231-.031.332-.089s.185-.142.243-.243.089-.215.089-.332a.66.66 0 0 0-.089-.332L6.574 2.331c-.058-.101-.142-.184-.243-.242S6.116 2 6 2s-.23.031-.331.089-.184.142-.243.242z" fill="#f93f32"/><g fill="#ffe7e0"><path fill-rule="evenodd" d="M6 4.573a.41.41 0 0 1 .41.41v1.658a.41.41 0 1 1-.821 0V4.984a.41.41 0 0 1 .41-.41z"/><path d="M6 8.63c.275 0 .497-.223.497-.497S6.275 7.636 6 7.636s-.497.223-.497.497.223.497.497.497z"/><path fill-rule="evenodd" d="M6 8.528c.218 0 .395-.177.395-.395S6.218 7.738 6 7.738s-.395.177-.395.395.177.395.395.395zm.497-.395c0 .275-.223.497-.497.497s-.497-.223-.497-.497.223-.497.497-.497.497.223.497.497z"/></g></svg>
